documentation/public/assets/images/label.svg

<svg width="55" height="24" viewBox="0 0 55 24" fill="none" xmlns="http://www.w3.org/2000/svg">
<path d="M1.14773 18V6.36364H3.25568V16.233H8.38068V18H1.14773ZM12.6307 18.1761C12.0777 18.1761 11.5795 18.0777 11.1364 17.8807C10.697 17.6799 10.3485 17.3845 10.0909 16.9943C9.83712 16.6042 9.71023 16.1231 9.71023 15.5511C9.71023 15.0587 9.80114 14.6515 9.98295 14.3295C10.1648 14.0076 10.4129 13.75 10.7273 13.5568C11.0417 13.3636 11.3958 13.2178 11.7898 13.1193C12.1875 13.017 12.5985 12.9432 13.0227 12.8977C13.5341 12.8447 13.9489 12.7973 14.267 12.7557C14.5852 12.7102 14.8163 12.642 14.9602 12.5511C15.108 12.4564 15.1818 12.3106 15.1818 12.1136V12.0795C15.1818 11.6515 15.0549 11.3201 14.8011 11.0852C14.5473 10.8504 14.1818 10.733 13.7045 10.733C13.2008 10.733 12.8011 10.8428 12.5057 11.0625C12.214 11.2822 12.017 11.5417 11.9148 11.8409L9.99432 11.5682C10.1458 11.0379 10.3958 10.5947 10.7443 10.2386C11.0928 9.87879 11.5189 9.60985 12.0227 9.43182C12.5265 9.25 13.0833 9.15909 13.6932 9.15909C14.1136 9.15909 14.5322 9.20833 14.9489 9.30682C15.3655 9.4053 15.7462 9.56818 16.0909 9.79545C16.4356 10.0189 16.7121 10.3239 16.9205 10.7102C17.1326 11.0966 17.2386 11.5795 17.2386 12.1591V18H15.2614V16.8011H15.1932C15.0682 17.0436 14.892 17.2708 14.6648 17.483C14.4413 17.6913 14.1591 17.8598 13.8182 17.9886C13.4811 18.1136 13.0852 18.1761 12.6307 18.1761ZM13.1648 16.6648C13.5777 16.6648 13.9356 16.5833 14.2386 16.4205C14.5417 16.2538 14.7746 16.0341 14.9375 15.7614C15.1042 15.4886 15.1875 15.1913 15.1875 14.8693V13.8409C15.1231 13.8939 15.0133 13.9432 14.858 13.9886C14.7064 14.0341 14.536 14.0739 14.3466 14.108C14.1572 14.142 13.9697 14.1723 13.7841 14.1989C13.5985 14.2254 13.4375 14.2481 13.3011 14.267C12.9943 14.3087 12.7197 14.3769 12.4773 14.4716C12.2348 14.5663 12.0436 14.6989 11.9034 14.8693C11.7633 15.036 11.6932 15.2519 11.6932 15.517C11.6932 15.8958 11.8314 16.1818 12.108 16.375C12.3845 16.5682 12.7367 16.6648 13.1648 16.6648ZM19.3977 18V6.36364H21.4545V10.7159H21.5398C21.6458 10.5038 21.7955 10.2784 21.9886 10.0398C22.1818 9.79735 22.4432 9.59091 22.7727 9.42045C23.1023 9.24621 23.5227 9.15909 24.0341 9.15909C24.7083 9.15909 25.3163 9.33144 25.858 9.67614C26.4034 10.017 26.8352 10.5227 27.1534 11.1932C27.4754 11.8598 27.6364 12.678 27.6364 13.6477C27.6364 14.6061 27.4792 15.4205 27.1648 16.0909C26.8504 16.7614 26.4223 17.2727 25.8807 17.625C25.339 17.9773 24.7254 18.1534 24.0398 18.1534C23.5398 18.1534 23.125 18.0701 22.7955 17.9034C22.4659 17.7367 22.2008 17.536 22 17.3011C21.803 17.0625 21.6496 16.8371 21.5398 16.625H21.4205V18H19.3977ZM21.4148 13.6364C21.4148 14.2008 21.4943 14.6951 21.6534 15.1193C21.8163 15.5436 22.0492 15.875 22.3523 16.1136C22.6591 16.3485 23.0303 16.4659 23.4659 16.4659C23.9205 16.4659 24.3011 16.3447 24.608 16.1023C24.9148 15.8561 25.1458 15.5208 25.3011 15.0966C25.4602 14.6686 25.5398 14.1818 25.5398 13.6364C25.5398 13.0947 25.4621 12.6136 25.3068 12.1932C25.1515 11.7727 24.9205 11.4432 24.6136 11.2045C24.3068 10.9659 23.9242 10.8466 23.4659 10.8466C23.0265 10.8466 22.6534 10.9621 22.3466 11.1932C22.0398 11.4242 21.8068 11.7481 21.6477 12.1648C21.4924 12.5814 21.4148 13.072 21.4148 13.6364ZM33.2486 18.1705C32.3736 18.1705 31.6179 17.9886 30.9815 17.625C30.349 17.2576 29.8622 16.7386 29.5213 16.0682C29.1804 15.3939 29.0099 14.6004 29.0099 13.6875C29.0099 12.7898 29.1804 12.0019 29.5213 11.3239C29.866 10.642 30.3471 10.1117 30.9645 9.73295C31.5819 9.35038 32.3073 9.15909 33.1406 9.15909C33.6785 9.15909 34.1861 9.24621 34.6634 9.42045C35.1444 9.59091 35.5687 9.85606 35.9361 10.2159C36.3073 10.5758 36.599 11.0341 36.8111 11.5909C37.0232 12.1439 37.1293 12.803 37.1293 13.5682V14.1989H29.9759V12.8125H35.1577C35.1539 12.4186 35.0687 12.0682 34.902 11.7614C34.7353 11.4508 34.5024 11.2064 34.2031 11.0284C33.9077 10.8504 33.563 10.7614 33.169 10.7614C32.7486 10.7614 32.3793 10.8636 32.0611 11.0682C31.7429 11.2689 31.4948 11.5341 31.3168 11.8636C31.1425 12.1894 31.0535 12.5473 31.0497 12.9375V14.1477C31.0497 14.6553 31.1425 15.0909 31.3281 15.4545C31.5137 15.8144 31.7732 16.0909 32.1065 16.2841C32.4399 16.4735 32.83 16.5682 33.277 16.5682C33.5762 16.5682 33.8471 16.5265 34.0895 16.4432C34.3319 16.3561 34.5421 16.2292 34.7202 16.0625C34.8982 15.8958 35.0327 15.6894 35.1236 15.4432L37.044 15.6591C36.9228 16.1667 36.6918 16.6098 36.3509 16.9886C36.0137 17.3636 35.5819 17.6553 35.0554 17.8636C34.5289 18.0682 33.9266 18.1705 33.2486 18.1705ZM40.9261 6.36364V18H38.8693V6.36364H40.9261Z" fill="#333333"/>
<path d="M49.6534 12.9091L49.7841 10.608L47.8523 11.875L47.1591 10.6705L49.2216 9.63636L47.1591 8.60227L47.8523 7.39773L49.7841 8.66477L49.6534 6.36364H51.0341L50.9091 8.66477L52.8409 7.39773L53.5341 8.60227L51.4659 9.63636L53.5341 10.6705L52.8409 11.875L50.9091 10.608L51.0341 12.9091H49.6534Z" fill="#EE0505"/>
</svg>

<svg width="55" height="24" fill="none" xmlns="http://www.w3.org/2000/svg"><path d="M1.15 18V6.36h2.1v9.87h5.13V18H1.15Zm11.48.18c-.55 0-1.05-.1-1.5-.3a2.5 2.5 0 0 1-1.04-.89 2.6 2.6 0 0 1-.38-1.44c0-.5.1-.9.27-1.22.18-.32.43-.58.75-.77.31-.2.67-.34 1.06-.44.4-.1.8-.18 1.23-.22l1.25-.14c.32-.05.55-.12.69-.2.15-.1.22-.25.22-.45v-.03c0-.43-.13-.76-.38-1-.25-.23-.62-.35-1.1-.35-.5 0-.9.11-1.2.33a1.7 1.7 0 0 0-.59.78L10 11.57a3.07 3.07 0 0 1 2.03-2.14 5.44 5.44 0 0 1 2.93-.13c.42.1.8.27 1.14.5.35.22.62.52.83.91.21.39.32.87.32 1.45V18h-1.98v-1.2h-.07a2.51 2.51 0 0 1-1.38 1.2c-.34.12-.73.19-1.19.19Zm.53-1.52c.42 0 .78-.08 1.08-.24a1.74 1.74 0 0 0 .95-1.56v-1.02a.97.97 0 0 1-.33.15l-.51.12a16.16 16.16 0 0 1-1.05.16c-.3.04-.58.1-.82.2-.25.1-.44.23-.58.4a.97.97 0 0 0-.2.65c0 .38.13.66.4.86.28.19.64.28 1.06.28ZM19.4 18V6.36h2.05v4.36h.09c.1-.22.26-.44.45-.68a2.46 2.46 0 0 1 2.04-.88 3.33 3.33 0 0 1 3.12 2.03c.33.67.49 1.49.49 2.46 0 .96-.16 1.77-.48 2.44a3.3 3.3 0 0 1-3.13 2.06A2.53 2.53 0 0 1 22 17.3a3.9 3.9 0 0 1-.45-.67h-.12V18H19.4Zm2.01-4.36c0 .56.08 1.06.24 1.48.17.42.4.76.7 1 .3.23.68.35 1.12.35.45 0 .83-.13 1.14-.37.3-.24.54-.58.7-1 .15-.43.23-.92.23-1.46 0-.55-.08-1.03-.23-1.45a2.17 2.17 0 0 0-.7-.99c-.3-.23-.69-.35-1.14-.35-.44 0-.82.11-1.12.34-.31.23-.54.56-.7.97-.16.42-.24.91-.24 1.48Zm11.84 4.53a4.5 4.5 0 0 1-2.27-.55 3.7 3.7 0 0 1-1.46-1.55 5.21 5.21 0 0 1-.51-2.38c0-.9.17-1.69.51-2.37a3.87 3.87 0 0 1 3.62-2.16c.54 0 1.05.09 1.52.26a3.59 3.59 0 0 1 2.15 2.17c.21.55.32 1.21.32 1.98v.63h-7.15v-1.4h5.18c0-.4-.1-.74-.26-1.05a1.89 1.89 0 0 0-1.73-1 2 2 0 0 0-1.1.3 2.22 2.22 0 0 0-1.02 1.88v1.2c0 .52.1.95.28 1.31.18.36.44.64.78.83.33.2.72.29 1.17.29.3 0 .57-.04.8-.13a1.65 1.65 0 0 0 1.04-1l1.92.22a3 3 0 0 1-.69 1.33c-.34.37-.77.67-1.3.87-.52.2-1.12.31-1.8.31Zm7.68-11.8V18h-2.06V6.36h2.06Z" fill="#333"/><path d="m49.65 12.9.13-2.3-1.93 1.28-.7-1.21 2.07-1.03-2.06-1.04.7-1.2 1.92 1.26-.13-2.3h1.38l-.12 2.3 1.93-1.26.7 1.2-2.07 1.04 2.06 1.03-.69 1.2-1.93-1.26.12 2.3h-1.38Z" fill="#EE0505"/></svg>
